images/50221672.svg

<?xml version="1.0" encoding="UTF-8"?>
<svg xmlns="http://www.w3.org/2000/svg" xmlns:xlink="http://www.w3.org/1999/xlink" width="300pt" height="300pt" viewBox="0 0 300 300" version="1.1">
<defs>
<g>
<symbol overflow="visible" id="glyph0-0">
<path style="stroke:none;" d="M 0.453125 1.59375 L 0.453125 -6.34375 L 4.953125 -6.34375 L 4.953125 1.59375 Z M 0.953125 1.09375 L 4.453125 1.09375 L 4.453125 -5.84375 L 0.953125 -5.84375 Z M 0.953125 1.09375 "/>
</symbol>
<symbol overflow="visible" id="glyph0-1">
<path style="stroke:none;" d="M 5.796875 -6.0625 L 5.796875 -5.125 C 5.492188 -5.394531 5.171875 -5.597656 4.828125 -5.734375 C 4.492188 -5.878906 4.140625 -5.953125 3.765625 -5.953125 C 3.015625 -5.953125 2.4375 -5.722656 2.03125 -5.265625 C 1.632812 -4.804688 1.4375 -4.144531 1.4375 -3.28125 C 1.4375 -2.414062 1.632812 -1.753906 2.03125 -1.296875 C 2.4375 -0.835938 3.015625 -0.609375 3.765625 -0.609375 C 4.140625 -0.609375 4.492188 -0.675781 4.828125 -0.8125 C 5.171875 -0.945312 5.492188 -1.15625 5.796875 -1.4375 L 5.796875 -0.5 C 5.484375 -0.289062 5.15625 -0.132812 4.8125 -0.03125 C 4.46875 0.0703125 4.097656 0.125 3.703125 0.125 C 2.710938 0.125 1.929688 -0.175781 1.359375 -0.78125 C 0.785156 -1.394531 0.5 -2.226562 0.5 -3.28125 C 0.5 -4.332031 0.785156 -5.160156 1.359375 -5.765625 C 1.929688 -6.378906 2.710938 -6.6875 3.703125 -6.6875 C 4.097656 -6.6875 4.46875 -6.632812 4.8125 -6.53125 C 5.164062 -6.425781 5.492188 -6.269531 5.796875 -6.0625 Z M 5.796875 -6.0625 "/>
</symbol>
<symbol overflow="visible" id="glyph0-2">
<path style="stroke:none;" d="M 0.84375 -6.84375 L 1.65625 -6.84375 L 1.65625 0 L 0.84375 0 Z M 0.84375 -6.84375 "/>
</symbol>
<symbol overflow="visible" id="glyph0-3">
<path style="stroke:none;" d="M 0.890625 -6.5625 L 4.65625 -6.5625 L 4.65625 -5.8125 L 1.765625 -5.8125 L 1.765625 -3.875 L 4.375 -3.875 L 4.375 -3.140625 L 1.765625 -3.140625 L 1.765625 0 L 0.890625 0 Z M 0.890625 -6.5625 "/>
</symbol>
<symbol overflow="visible" id="glyph0-4">
<path style="stroke:none;" d="M 3.546875 -5.953125 C 2.898438 -5.953125 2.382812 -5.710938 2 -5.234375 C 1.625 -4.753906 1.4375 -4.101562 1.4375 -3.28125 C 1.4375 -2.445312 1.625 -1.789062 2 -1.3125 C 2.382812 -0.832031 2.898438 -0.59375 3.546875 -0.59375 C 4.191406 -0.59375 4.703125 -0.832031 5.078125 -1.3125 C 5.453125 -1.789062 5.640625 -2.445312 5.640625 -3.28125 C 5.640625 -4.101562 5.453125 -4.753906 5.078125 -5.234375 C 4.703125 -5.710938 4.191406 -5.953125 3.546875 -5.953125 Z M 3.546875 -6.6875 C 4.460938 -6.6875 5.195312 -6.375 5.75 -5.75 C 6.300781 -5.132812 6.578125 -4.3125 6.578125 -3.28125 C 6.578125 -2.238281 6.300781 -1.410156 5.75 -0.796875 C 5.195312 -0.179688 4.460938 0.125 3.546875 0.125 C 2.617188 0.125 1.878906 -0.179688 1.328125 -0.796875 C 0.773438 -1.410156 0.5 -2.238281 0.5 -3.28125 C 0.5 -4.3125 0.773438 -5.132812 1.328125 -5.75 C 1.878906 -6.375 2.617188 -6.6875 3.546875 -6.6875 Z M 3.546875 -6.6875 "/>
</symbol>
<symbol overflow="visible" id="glyph0-5">
<path style="stroke:none;" d="M 0.890625 -6.5625 L 2.078125 -6.5625 L 4.984375 -1.078125 L 4.984375 -6.5625 L 5.84375 -6.5625 L 5.84375 0 L 4.65625 0 L 1.75 -5.484375 L 1.75 0 L 0.890625 0 Z M 0.890625 -6.5625 "/>
</symbol>
<symbol overflow="visible" id="glyph0-6">
<path style="stroke:none;" d="M 0.890625 -6.5625 L 1.765625 -6.5625 L 1.765625 -3.875 L 5 -3.875 L 5 -6.5625 L 5.890625 -6.5625 L 5.890625 0 L 5 0 L 5 -3.125 L 1.765625 -3.125 L 1.765625 0 L 0.890625 0 Z M 0.890625 -6.5625 "/>
</symbol>
</g>
</defs>
<g id="surface21965">
<rect x="0" y="0" width="300" height="300" style="fill:rgb(100%,100%,100%);fill-opacity:1;stroke:none;"/>
<path style="fill:none;stroke-width:1.2;stroke-linecap:butt;stroke-linejoin:miter;stroke:rgb(0%,80%,0%);stroke-opacity:1;stroke-miterlimit:10;" d="M 89.917969 175.273438 L 88.089844 162.65625 "/>
<path style="fill:none;stroke-width:1.2;stroke-linecap:butt;stroke-linejoin:miter;stroke:rgb(0%,0%,0%);stroke-opacity:1;stroke-miterlimit:10;" d="M 88.089844 162.65625 L 86.265625 150.039062 "/>
<path style=" stroke:none;fill-rule:nonzero;fill:rgb(100%,100%,100%);fill-opacity:1;" d="M 84.917969 169.773438 L 94.917969 169.773438 L 94.917969 180.773438 L 84.917969 180.773438 Z M 84.917969 169.773438 "/>
<g style="fill:rgb(0%,80%,0%);fill-opacity:1;">
  <use xlink:href="#glyph0-1" x="84.917969" y="178.436523"/>
  <use xlink:href="#glyph0-2" x="91.431641" y="178.436523"/>
</g>
<path style="fill:none;stroke-width:1.2;stroke-linecap:butt;stroke-linejoin:miter;stroke:rgb(0%,0%,0%);stroke-opacity:1;stroke-miterlimit:10;" d="M 86.265625 150.039062 L 62.585938 140.585938 "/>
<path style="fill:none;stroke-width:1.2;stroke-linecap:butt;stroke-linejoin:miter;stroke:rgb(0%,0%,0%);stroke-opacity:1;stroke-miterlimit:10;" d="M 86.121094 143.523438 L 67.175781 135.960938 "/>
<path style="fill:none;stroke-width:1.2;stroke-linecap:butt;stroke-linejoin:miter;stroke:rgb(0%,0%,0%);stroke-opacity:1;stroke-miterlimit:10;" d="M 106.292969 134.257812 L 86.265625 150.039062 "/>
<path style="fill:none;stroke-width:1.2;stroke-linecap:butt;stroke-linejoin:miter;stroke:rgb(0%,0%,0%);stroke-opacity:1;stroke-miterlimit:10;" d="M 62.585938 140.585938 L 58.929688 115.351562 "/>
<path style="fill:none;stroke-width:1.2;stroke-linecap:butt;stroke-linejoin:miter;stroke:rgb(0%,0%,0%);stroke-opacity:1;stroke-miterlimit:10;" d="M 58.929688 115.351562 L 47.089844 110.625 "/>
<path style="fill:none;stroke-width:1.2;stroke-linecap:butt;stroke-linejoin:miter;stroke:rgb(20%,80%,80%);stroke-opacity:1;stroke-miterlimit:10;" d="M 47.089844 110.625 L 35.25 105.898438 "/>
<path style="fill:none;stroke-width:1.2;stroke-linecap:butt;stroke-linejoin:miter;stroke:rgb(0%,0%,0%);stroke-opacity:1;stroke-miterlimit:10;" d="M 58.929688 115.351562 L 78.957031 99.570312 "/>
<path style="fill:none;stroke-width:1.2;stroke-linecap:butt;stroke-linejoin:miter;stroke:rgb(0%,0%,0%);stroke-opacity:1;stroke-miterlimit:10;" d="M 64.648438 118.484375 L 80.667969 105.859375 "/>
<path style=" stroke:none;fill-rule:nonzero;fill:rgb(100%,100%,100%);fill-opacity:1;" d="M 29.25 100.398438 L 35.25 100.398438 L 35.25 111.398438 L 29.25 111.398438 Z M 29.25 100.398438 "/>
<g style="fill:rgb(20%,80%,80%);fill-opacity:1;">
  <use xlink:href="#glyph0-3" x="29.25" y="109.061523"/>
</g>
<path style="fill:none;stroke-width:1.2;stroke-linecap:butt;stroke-linejoin:miter;stroke:rgb(0%,0%,0%);stroke-opacity:1;stroke-miterlimit:10;" d="M 78.957031 99.570312 L 102.636719 109.023438 "/>
<path style="fill:none;stroke-width:1.2;stroke-linecap:butt;stroke-linejoin:miter;stroke:rgb(0%,0%,0%);stroke-opacity:1;stroke-miterlimit:10;" d="M 102.636719 109.023438 L 106.292969 134.257812 "/>
<path style="fill:none;stroke-width:1.2;stroke-linecap:butt;stroke-linejoin:miter;stroke:rgb(0%,0%,0%);stroke-opacity:1;stroke-miterlimit:10;" d="M 97.066406 112.40625 L 99.988281 132.59375 "/>
<path style="fill:none;stroke-width:1.2;stroke-linecap:butt;stroke-linejoin:miter;stroke:rgb(0%,0%,0%);stroke-opacity:1;stroke-miterlimit:10;" d="M 106.292969 134.257812 L 129.972656 143.710938 "/>
<path style="fill:none;stroke-width:1.2;stroke-linecap:butt;stroke-linejoin:miter;stroke:rgb(0%,0%,0%);stroke-opacity:1;stroke-miterlimit:10;" d="M 129.972656 143.710938 L 133.625 168.945312 "/>
<path style="fill:none;stroke-width:1.2;stroke-linecap:butt;stroke-linejoin:miter;stroke:rgb(0%,0%,0%);stroke-opacity:1;stroke-miterlimit:10;" d="M 136.277344 145.375 L 139.199219 165.5625 "/>
<path style="fill:none;stroke-width:1.2;stroke-linecap:butt;stroke-linejoin:miter;stroke:rgb(0%,0%,0%);stroke-opacity:1;stroke-miterlimit:10;" d="M 150 127.929688 L 129.972656 143.710938 "/>
<path style="fill:none;stroke-width:1.2;stroke-linecap:butt;stroke-linejoin:miter;stroke:rgb(0%,0%,0%);stroke-opacity:1;stroke-miterlimit:10;" d="M 133.625 168.945312 L 157.308594 178.398438 "/>
<path style="fill:none;stroke-width:1.2;stroke-linecap:butt;stroke-linejoin:miter;stroke:rgb(0%,0%,0%);stroke-opacity:1;stroke-miterlimit:10;" d="M 157.308594 178.398438 L 159.132812 191.015625 "/>
<path style="fill:none;stroke-width:1.2;stroke-linecap:butt;stroke-linejoin:miter;stroke:rgb(100%,0%,0%);stroke-opacity:1;stroke-miterlimit:10;" d="M 159.132812 191.015625 L 160.960938 203.632812 "/>
<path style="fill:none;stroke-width:1.2;stroke-linecap:butt;stroke-linejoin:miter;stroke:rgb(0%,0%,0%);stroke-opacity:1;stroke-miterlimit:10;" d="M 157.308594 178.398438 L 177.335938 162.617188 "/>
<path style="fill:none;stroke-width:1.2;stroke-linecap:butt;stroke-linejoin:miter;stroke:rgb(0%,0%,0%);stroke-opacity:1;stroke-miterlimit:10;" d="M 155.597656 172.109375 L 171.617188 159.484375 "/>
<path style="fill:none;stroke-width:1.2;stroke-linecap:butt;stroke-linejoin:miter;stroke:rgb(100%,0%,0%);stroke-opacity:1;stroke-miterlimit:10;" d="M 160.960938 203.632812 L 150.945312 211.523438 "/>
<path style="fill:none;stroke-width:1.2;stroke-linecap:butt;stroke-linejoin:miter;stroke:rgb(0%,0%,0%);stroke-opacity:1;stroke-miterlimit:10;" d="M 150.945312 211.523438 L 140.933594 219.414062 "/>
<path style=" stroke:none;fill-rule:nonzero;fill:rgb(100%,100%,100%);fill-opacity:1;" d="M 156.960938 198.132812 L 164.960938 198.132812 L 164.960938 209.132812 L 156.960938 209.132812 Z M 156.960938 198.132812 "/>
<g style="fill:rgb(100%,0%,0%);fill-opacity:1;">
  <use xlink:href="#glyph0-4" x="156.960938" y="206.795898"/>
</g>
<path style="fill:none;stroke-width:1.2;stroke-linecap:butt;stroke-linejoin:miter;stroke:rgb(0%,0%,0%);stroke-opacity:1;stroke-miterlimit:10;" d="M 177.335938 162.617188 L 173.679688 137.382812 "/>
<path style="fill:none;stroke-width:1.2;stroke-linecap:butt;stroke-linejoin:miter;stroke:rgb(0%,0%,0%);stroke-opacity:1;stroke-miterlimit:10;" d="M 173.679688 137.382812 L 183.695312 129.492188 "/>
<path style="fill:none;stroke-width:1.2;stroke-linecap:butt;stroke-linejoin:miter;stroke:rgb(0%,0%,100%);stroke-opacity:1;stroke-miterlimit:10;" d="M 183.695312 129.492188 L 193.707031 121.601562 "/>
<path style="fill:none;stroke-width:1.2;stroke-linecap:butt;stroke-linejoin:miter;stroke:rgb(0%,0%,0%);stroke-opacity:1;stroke-miterlimit:10;" d="M 150 127.929688 L 173.679688 137.382812 "/>
<path style="fill:none;stroke-width:1.2;stroke-linecap:butt;stroke-linejoin:miter;stroke:rgb(0%,0%,0%);stroke-opacity:1;stroke-miterlimit:10;" d="M 150.144531 134.445312 L 169.089844 142.007812 "/>
<path style="fill:none;stroke-width:1.2;stroke-linecap:butt;stroke-linejoin:miter;stroke:rgb(0%,0%,100%);stroke-opacity:1;stroke-miterlimit:10;" d="M 193.707031 121.601562 L 205.546875 126.328125 "/>
<path style="fill:none;stroke-width:1.2;stroke-linecap:butt;stroke-linejoin:miter;stroke:rgb(0%,0%,0%);stroke-opacity:1;stroke-miterlimit:10;" d="M 205.546875 126.328125 L 217.386719 131.054688 "/>
<path style="fill:none;stroke-width:1.2;stroke-linecap:butt;stroke-linejoin:miter;stroke:rgb(0%,0%,100%);stroke-opacity:1;stroke-miterlimit:10;" d="M 193.707031 121.601562 L 191.882812 108.984375 "/>
<path style="fill:none;stroke-width:1.2;stroke-linecap:butt;stroke-linejoin:miter;stroke:rgb(0%,0%,0%);stroke-opacity:1;stroke-miterlimit:10;" d="M 191.882812 108.984375 L 190.054688 96.367188 "/>
<path style=" stroke:none;fill-rule:nonzero;fill:rgb(100%,100%,100%);fill-opacity:1;" d="M 190.707031 116.101562 L 197.707031 116.101562 L 197.707031 127.101562 L 190.707031 127.101562 Z M 190.707031 116.101562 "/>
<g style="fill:rgb(0%,0%,100%);fill-opacity:1;">
  <use xlink:href="#glyph0-5" x="190.707031" y="124.764648"/>
</g>
<path style="fill:none;stroke-width:1.2;stroke-linecap:butt;stroke-linejoin:miter;stroke:rgb(0%,0%,0%);stroke-opacity:1;stroke-miterlimit:10;" d="M 217.386719 131.054688 L 221.042969 156.289062 "/>
<path style="fill:none;stroke-width:1.2;stroke-linecap:butt;stroke-linejoin:miter;stroke:rgb(0%,0%,0%);stroke-opacity:1;stroke-miterlimit:10;" d="M 223.691406 132.71875 L 226.613281 152.90625 "/>
<path style="fill:none;stroke-width:1.2;stroke-linecap:butt;stroke-linejoin:miter;stroke:rgb(0%,0%,0%);stroke-opacity:1;stroke-miterlimit:10;" d="M 237.414062 115.273438 L 217.386719 131.054688 "/>
<path style="fill:none;stroke-width:1.2;stroke-linecap:butt;stroke-linejoin:miter;stroke:rgb(0%,0%,0%);stroke-opacity:1;stroke-miterlimit:10;" d="M 221.042969 156.289062 L 211.027344 164.179688 "/>
<path style="fill:none;stroke-width:1.2;stroke-linecap:butt;stroke-linejoin:miter;stroke:rgb(0%,80%,0%);stroke-opacity:1;stroke-miterlimit:10;" d="M 211.027344 164.179688 L 201.015625 172.070312 "/>
<path style="fill:none;stroke-width:1.2;stroke-linecap:butt;stroke-linejoin:miter;stroke:rgb(0%,0%,0%);stroke-opacity:1;stroke-miterlimit:10;" d="M 221.042969 156.289062 L 244.722656 165.742188 "/>
<path style=" stroke:none;fill-rule:nonzero;fill:rgb(100%,100%,100%);fill-opacity:1;" d="M 191.015625 166.570312 L 201.015625 166.570312 L 201.015625 177.570312 L 191.015625 177.570312 Z M 191.015625 166.570312 "/>
<g style="fill:rgb(0%,80%,0%);fill-opacity:1;">
  <use xlink:href="#glyph0-1" x="191.015625" y="175.233398"/>
  <use xlink:href="#glyph0-2" x="197.529297" y="175.233398"/>
</g>
<path style="fill:none;stroke-width:1.2;stroke-linecap:butt;stroke-linejoin:miter;stroke:rgb(0%,0%,0%);stroke-opacity:1;stroke-miterlimit:10;" d="M 244.722656 165.742188 L 264.75 149.960938 "/>
<path style="fill:none;stroke-width:1.2;stroke-linecap:butt;stroke-linejoin:miter;stroke:rgb(0%,0%,0%);stroke-opacity:1;stroke-miterlimit:10;" d="M 243.011719 159.453125 L 259.035156 146.828125 "/>
<path style="fill:none;stroke-width:1.2;stroke-linecap:butt;stroke-linejoin:miter;stroke:rgb(0%,0%,0%);stroke-opacity:1;stroke-miterlimit:10;" d="M 264.75 149.960938 L 261.097656 124.726562 "/>
<path style="fill:none;stroke-width:1.2;stroke-linecap:butt;stroke-linejoin:miter;stroke:rgb(0%,0%,0%);stroke-opacity:1;stroke-miterlimit:10;" d="M 261.097656 124.726562 L 237.414062 115.273438 "/>
<path style="fill:none;stroke-width:1.2;stroke-linecap:butt;stroke-linejoin:miter;stroke:rgb(0%,0%,0%);stroke-opacity:1;stroke-miterlimit:10;" d="M 256.503906 129.351562 L 237.558594 121.789062 "/>
<path style="fill:none;stroke-width:1.2;stroke-linecap:butt;stroke-linejoin:miter;stroke:rgb(0%,0%,0%);stroke-opacity:1;stroke-miterlimit:10;" d="M 237.414062 115.273438 L 235.589844 102.65625 "/>
<path style="fill:none;stroke-width:1.2;stroke-linecap:butt;stroke-linejoin:miter;stroke:rgb(0%,80%,0%);stroke-opacity:1;stroke-miterlimit:10;" d="M 235.589844 102.65625 L 233.761719 90.039062 "/>
<path style=" stroke:none;fill-rule:nonzero;fill:rgb(100%,100%,100%);fill-opacity:1;" d="M 228.761719 84.539062 L 238.761719 84.539062 L 238.761719 95.539062 L 228.761719 95.539062 Z M 228.761719 84.539062 "/>
<g style="fill:rgb(0%,80%,0%);fill-opacity:1;">
  <use xlink:href="#glyph0-1" x="228.761719" y="93.202148"/>
  <use xlink:href="#glyph0-2" x="235.275391" y="93.202148"/>
</g>
<path style="fill:none;stroke-width:1.2;stroke-linecap:butt;stroke-linejoin:miter;stroke:rgb(0%,0%,0%);stroke-opacity:1;stroke-miterlimit:10;" d="M 191.910156 98.722656 L 201.925781 90.832031 "/>
<path style="fill:none;stroke-width:1.2;stroke-linecap:butt;stroke-linejoin:miter;stroke:rgb(100%,0%,0%);stroke-opacity:1;stroke-miterlimit:10;" d="M 201.925781 90.832031 L 211.9375 82.941406 "/>
<path style="fill:none;stroke-width:1.2;stroke-linecap:butt;stroke-linejoin:miter;stroke:rgb(0%,0%,0%);stroke-opacity:1;stroke-miterlimit:10;" d="M 188.199219 94.011719 L 198.210938 86.121094 "/>
<path style="fill:none;stroke-width:1.2;stroke-linecap:butt;stroke-linejoin:miter;stroke:rgb(100%,0%,0%);stroke-opacity:1;stroke-miterlimit:10;" d="M 198.210938 86.121094 L 208.226562 78.230469 "/>
<path style="fill:none;stroke-width:1.2;stroke-linecap:butt;stroke-linejoin:miter;stroke:rgb(0%,0%,0%);stroke-opacity:1;stroke-miterlimit:10;" d="M 190.054688 96.367188 L 178.214844 91.640625 "/>
<path style="fill:none;stroke-width:1.2;stroke-linecap:butt;stroke-linejoin:miter;stroke:rgb(0%,0%,100%);stroke-opacity:1;stroke-miterlimit:10;" d="M 178.214844 91.640625 L 166.375 86.914062 "/>
<path style=" stroke:none;fill-rule:nonzero;fill:rgb(100%,100%,100%);fill-opacity:1;" d="M 206.082031 75.085938 L 214.082031 75.085938 L 214.082031 86.085938 L 206.082031 86.085938 Z M 206.082031 75.085938 "/>
<g style="fill:rgb(100%,0%,0%);fill-opacity:1;">
  <use xlink:href="#glyph0-4" x="206.082031" y="83.749023"/>
</g>
<path style="fill:none;stroke-width:1.2;stroke-linecap:butt;stroke-linejoin:miter;stroke:rgb(0%,0%,100%);stroke-opacity:1;stroke-miterlimit:10;" d="M 166.375 86.914062 L 156.359375 94.804688 "/>
<path style="fill:none;stroke-width:1.2;stroke-linecap:butt;stroke-linejoin:miter;stroke:rgb(0%,0%,0%);stroke-opacity:1;stroke-miterlimit:10;" d="M 156.359375 94.804688 L 146.347656 102.695312 "/>
<path style=" stroke:none;fill-rule:nonzero;fill:rgb(100%,100%,100%);fill-opacity:1;" d="M 159.375 81.414062 L 173.375 81.414062 L 173.375 92.414062 L 159.375 92.414062 Z M 159.375 81.414062 "/>
<g style="fill:rgb(0%,0%,100%);fill-opacity:1;">
  <use xlink:href="#glyph0-5" x="159.375" y="90.077148"/>
  <use xlink:href="#glyph0-6" x="166.352539" y="90.077148"/>
</g>
<path style="fill:none;stroke-width:1.2;stroke-linecap:butt;stroke-linejoin:miter;stroke:rgb(0%,0%,0%);stroke-opacity:1;stroke-miterlimit:10;" d="M 146.347656 102.695312 L 150 127.929688 "/>
</g>
</svg>

<svg xmlns="http://www.w3.org/2000/svg" xmlns:xlink="http://www.w3.org/1999/xlink" width="300pt" height="300pt" viewBox="0 0 300 300"><defs><symbol overflow="visible"><path d="M.453 1.594v-7.938h4.5v7.938zm.5-.5h3.5v-6.938h-3.5zm0 0"/></symbol><symbol overflow="visible" id="a"><path d="M5.797-6.063v.938c-.305-.27-.625-.473-.97-.61-.335-.144-.686-.218-1.06-.218-.75 0-1.33.23-1.736.687-.397.46-.592 1.12-.592 1.985 0 .866.195 1.526.593 1.983.408.46.986.688 1.736.688.375 0 .726-.066 1.062-.203.344-.132.664-.343.97-.625V-.5c-.314.21-.642.367-.986.47-.343.1-.714.155-1.11.155-.99 0-1.772-.3-2.343-.906C.784-1.396.5-2.228.5-3.28c0-1.052.285-1.88.86-2.486.57-.613 1.35-.92 2.343-.92.395-.002.766.053 1.11.155.35.104.68.26.984.468zm0 0"/></symbol><symbol overflow="visible" id="b"><path d="M.844-6.844h.812V0H.844zm0 0"/></symbol><symbol overflow="visible" id="c"><path d="M.89-6.563h3.766v.75h-2.89v1.938h2.61v.734h-2.61V0H.89zm0 0"/></symbol><symbol overflow="visible" id="d"><path d="M3.547-5.953c-.65 0-1.164.242-1.547.72-.375.48-.563 1.13-.563 1.952 0 .835.188 1.49.563 1.967.383.48.898.72 1.547.72.644 0 1.156-.24 1.53-.72.376-.476.564-1.132.564-1.968 0-.822-.187-1.474-.562-1.954-.375-.477-.887-.72-1.53-.72zm0-.734c.914 0 1.648.312 2.203.937.55.617.828 1.438.828 2.47 0 1.042-.277 1.87-.828 2.483-.555.617-1.29.922-2.203.922-.93 0-1.668-.305-2.22-.922C.774-1.41.5-2.237.5-3.28c0-1.033.273-1.853.828-2.47.55-.625 1.29-.938 2.22-.938zm0 0"/></symbol><symbol overflow="visible" id="e"><path d="M.89-6.563H2.08l2.906 5.485v-5.484h.86V0H4.656L1.75-5.484V0H.89zm0 0"/></symbol><symbol overflow="visible" id="f"><path d="M.89-6.563h.876v2.688H5v-2.688h.89V0H5v-3.125H1.766V0H.89zm0 0"/></symbol></defs><g><path fill="#fff" d="M0 0h300v300H0z"/><path d="M89.918 175.273l-1.828-12.617" stroke-width="1.2" stroke="#0c0" stroke-miterlimit="10" fill="none"/><path d="M88.09 162.656l-1.824-12.617" stroke-width="1.2" stroke="#000" stroke-miterlimit="10" fill="none"/><path d="M84.918 169.773h10v11h-10zm0 0" fill="#fff"/><g fill="#0c0"><use xlink:href="#a" x="84.918" y="178.437"/><use xlink:href="#b" x="91.432" y="178.437"/></g><path d="M86.266 150.04l-23.68-9.454M86.12 143.523l-18.944-7.562M106.293 134.258l-20.027 15.78M62.586 140.586l-3.656-25.234M58.93 115.352l-11.84-4.727" stroke-width="1.2" stroke="#000" stroke-miterlimit="10" fill="none"/><path d="M47.09 110.625l-11.84-4.727" stroke-width="1.2" stroke="#3cc" stroke-miterlimit="10" fill="none"/><path d="M58.93 115.352L78.957 99.57M64.648 118.484l16.02-12.625" stroke-width="1.2" stroke="#000" stroke-miterlimit="10" fill="none"/><path d="M29.25 100.398h6v11h-6zm0 0" fill="#fff"/><use xlink:href="#c" x="29.25" y="109.062" fill="#3cc"/><path d="M78.957 99.57l23.68 9.453M102.637 109.023l3.656 25.235M97.066 112.406l2.922 20.188M106.293 134.258l23.68 9.453M129.973 143.71l3.652 25.235M136.277 145.375l2.922 20.188M150 127.93l-20.027 15.78M133.625 168.945l23.684 9.453M157.31 178.398l1.823 12.618" stroke-width="1.2" stroke="#000" stroke-miterlimit="10" fill="none"/><path d="M159.133 191.016l1.828 12.617" stroke-width="1.2" stroke="#f00" stroke-miterlimit="10" fill="none"/><path d="M157.31 178.398l20.026-15.78M155.598 172.11l16.02-12.626" stroke-width="1.2" stroke="#000" stroke-miterlimit="10" fill="none"/><path d="M160.96 203.633l-10.015 7.89" stroke-width="1.2" stroke="#f00" stroke-miterlimit="10" fill="none"/><path d="M150.945 211.523l-10.01 7.89" stroke-width="1.2" stroke="#000" stroke-miterlimit="10" fill="none"/><path d="M156.96 198.133h8v11h-8zm0 0" fill="#fff"/><use xlink:href="#d" x="156.961" y="206.796" fill="#f00"/><path d="M177.336 162.617l-3.656-25.234M173.68 137.383l10.015-7.89" stroke-width="1.2" stroke="#000" stroke-miterlimit="10" fill="none"/><path d="M183.695 129.492l10.012-7.89" stroke-width="1.2" stroke="#00f" stroke-miterlimit="10" fill="none"/><path d="M150 127.93l23.68 9.453M150.145 134.445l18.945 7.563" stroke-width="1.2" stroke="#000" stroke-miterlimit="10" fill="none"/><path d="M193.707 121.602l11.84 4.726" stroke-width="1.2" stroke="#00f" stroke-miterlimit="10" fill="none"/><path d="M205.547 126.328l11.84 4.727" stroke-width="1.2" stroke="#000" stroke-miterlimit="10" fill="none"/><path d="M193.707 121.602l-1.824-12.618" stroke-width="1.2" stroke="#00f" stroke-miterlimit="10" fill="none"/><path d="M191.883 108.984l-1.828-12.617" stroke-width="1.2" stroke="#000" stroke-miterlimit="10" fill="none"/><path d="M190.707 116.102h7v11h-7zm0 0" fill="#fff"/><use xlink:href="#e" x="190.707" y="124.765" fill="#00f"/><path d="M217.387 131.055l3.656 25.234M223.69 132.72l2.923 20.186M237.414 115.273l-20.027 15.782M221.043 156.29l-10.016 7.89" stroke-width="1.2" stroke="#000" stroke-miterlimit="10" fill="none"/><path d="M211.027 164.18l-10.01 7.89" stroke-width="1.2" stroke="#0c0" stroke-miterlimit="10" fill="none"/><path d="M221.043 156.29l23.68 9.452" stroke-width="1.2" stroke="#000" stroke-miterlimit="10" fill="none"/><path d="M191.016 166.57h10v11h-10zm0 0" fill="#fff"/><g fill="#0c0"><use xlink:href="#a" x="191.016" y="175.233"/><use xlink:href="#b" x="197.529" y="175.233"/></g><path d="M244.723 165.742l20.027-15.78M243.012 159.453l16.023-12.625M264.75 149.96l-3.652-25.233M261.098 124.727l-23.684-9.454M256.504 129.352l-18.945-7.563M237.414 115.273l-1.824-12.617" stroke-width="1.2" stroke="#000" stroke-miterlimit="10" fill="none"/><path d="M235.59 102.656l-1.828-12.617" stroke-width="1.2" stroke="#0c0" stroke-miterlimit="10" fill="none"/><path d="M228.762 84.54h10v11h-10zm0 0" fill="#fff"/><g fill="#0c0"><use xlink:href="#a" x="228.762" y="93.202"/><use xlink:href="#b" x="235.275" y="93.202"/></g><path d="M191.91 98.723l10.016-7.89" stroke-width="1.2" stroke="#000" stroke-miterlimit="10" fill="none"/><path d="M201.926 90.832l10.012-7.89" stroke-width="1.2" stroke="#f00" stroke-miterlimit="10" fill="none"/><path d="M188.2 94.012l10.01-7.89" stroke-width="1.2" stroke="#000" stroke-miterlimit="10" fill="none"/><path d="M198.21 86.12l10.017-7.89" stroke-width="1.2" stroke="#f00" stroke-miterlimit="10" fill="none"/><path d="M190.055 96.367l-11.84-4.726" stroke-width="1.2" stroke="#000" stroke-miterlimit="10" fill="none"/><path d="M178.215 91.64l-11.84-4.726" stroke-width="1.2" stroke="#00f" stroke-miterlimit="10" fill="none"/><path d="M206.082 75.086h8v11h-8zm0 0" fill="#fff"/><use xlink:href="#d" x="206.082" y="83.749" fill="#f00"/><path d="M166.375 86.914l-10.016 7.89" stroke-width="1.2" stroke="#00f" stroke-miterlimit="10" fill="none"/><path d="M156.36 94.805l-10.012 7.89" stroke-width="1.2" stroke="#000" stroke-miterlimit="10" fill="none"/><path d="M159.375 81.414h14v11h-14zm0 0" fill="#fff"/><g fill="#00f"><use xlink:href="#e" x="159.375" y="90.077"/><use xlink:href="#f" x="166.353" y="90.077"/></g><path d="M146.348 102.695L150 127.93" stroke-width="1.2" stroke="#000" stroke-miterlimit="10" fill="none"/></g></svg>
